!!!CDT:
!!!PTL: Il primo libro de madrigali a cinque voci
!!!PPP: Venice
!!!PPR: Amadino
!!!PDT: 1602
!!!PUB-format:
!!!RISM: B 2645
!!!rime: 1177
!!!AGN: Madrigal
!!!SCT: Trm1177c
!!!SCA: Trm1177c
!!!original-voices: 5
!!!extant-voices: 3
!!!complete: N
!!!final: G
!!!COM: Billi, Lucio
!!!OTL: Che soave rapina
**kern	**text	**kern	**text	**kern	**text
*part3	*part3	*part2	*part2	*part1	*part1
*staff3	*staff3	*staff2	*staff2	*staff1	*staff1
*I"Basso	*	*I"Tenore	*	*I"Alto	*
*I'B	*	*I'T	*	*I'A	*
*oclefF3	*	*oclefC3	*	*oclefC2	*
*clefF4	*	*clefGv2	*	*clefGv2	*
*k[b-]	*	*k[b-]	*	*k[b-]	*
*omet(C)	*	*omet(C)	*	*omet(C)	*
*M4/2	*	*M4/2	*	*M4/2	*
=1	=1	=1	=1	=1	=1
0r	.	0r	.	2r	.
.	.	.	.	4g	Che
.	.	.	.	4g	so-
.	.	.	.	8dL	-a-
.	.	.	.	8c	.
.	.	.	.	8d	.
.	.	.	.	8eJ	.
.	.	.	.	2f	.
=2	=2	=2	=2	=2	=2
0r	.	0r	.	4f	-ve
.	.	.	.	4e	ra-
.	.	.	.	2d	-pi-
.	.	.	.	4G	-na
.	.	.	.	4g	Fu
.	.	.	.	4.g	quel-
.	.	.	.	8g	-la
=3	=3	=3	=3	=3	=3
0r	.	0r	.	4a	del
.	.	.	.	4g	mio
.	.	.	.	2f#X	co-
.	.	.	.	1g	-re,
=4	=4	=4	=4	=4	=4
0r	.	0r	.	2r	.
.	.	.	.	4d	Che
.	.	.	.	4d	so-
.	.	.	.	8gL	-a-
.	.	.	.	8fnXi	.
.	.	.	.	8g	.
.	.	.	.	8aJ	.
.	.	.	.	2b-y	.
=5	=5	=5	=5	=5	=5
0r	.	0r	.	4.cc	-ve
.	.	.	.	8g	ra-
.	.	.	.	2dd	-pi-
.	.	.	.	4g	-na
.	.	.	.	4g	Fu
.	.	.	.	4.g	quel-
.	.	.	.	8g	-la
=6	=6	=6	=6	=6	=6
0r	.	0r	.	4a	del
.	.	.	.	4g	mio
.	.	.	.	2f#X	co-
.	.	.	.	4g	-re,
.	.	.	.	4G	Fu
.	.	.	.	4.c	quel-
.	.	.	.	8c	-la
=7	=7	=7	=7	=7	=7
1r	.	1r	.	4c	del
.	.	.	.	4G	mio
.	.	.	.	2d	co-
1G	A	1d	A	2G	-re
.	.	.	.	4r	.
.	.	.	.	4g	A
=8	=8	=8	=8	=8	=8
2F#X	l'ar-	2d	l'ar-	2a	l'ar-
2G	-mo-	2B-y	-mo-	2g	-mo-
4D	-nia	2A	-nia	2f	-nia
4FnXi	di-	.	.	.	.
8BB-yL	-vi-	2d	di-	2f	di-
8C	.	.	.	.	.
8D	.	.	.	.	.
8EJ	.	.	.	.	.
=9	=9	=9	=9	=9	=9
1F	.	1c	-vi-	1f	-vi-
4BB-y	-na,	4d	-na,	1f	-na,
2B-y	Men-	2d	Men-	.	.
8A	-tre	8c	-tre	.	.
8G	scio-	8B-y	scio-	.	.
=10	=10	=10	=10	=10	=10
2F	-gliea,	4A	-gliea,	0r	.
.	.	2a	<Men-	.	.
2r	.	.	.	.	.
.	.	8g	-tre	.	.
.	.	8f	scio-	.	.
4r	.	2e	-gliea>	.	.
2c	Men-	.	.	.	.
.	.	2r	.	.	.
8B-y	-tre	.	.	.	.
8A	scio-	.	.	.	.
=11	=11	=11	=11	=11	=11
2G	-gliea	2r	.	2r	.
2G	sì	2d	sì	2g	sì
4.C	va-	4.c	va-	4.g	va-
8C	-ghi	8c	-ghi	8g	-ghi
4F	spir-	4A	spir-	4f	spir-
4C	-ti A-	4G	-ti A-	4g	-ti A-
=12	=12	=12	=12	=12	=12
1D	-mo-	1d	-mo-	4f#X	-mo-
.	.	.	.	2g	.
.	.	.	.	4f#X	.
1G	-re!	2d	-re!	1g	-re!
.	.	2g	On-	.	.
=13	=13	=13	=13	=13	=13
1r	.	4g	-de	0r	.
.	.	4g	fra	.	.
.	.	4f	me	.	.
.	.	4e	di-	.	.
2r	.	1d	-cea	.	.
2G	On-	.	.	.	.
=14	=14	=14	=14	=14	=14
4G	-de	0r	.	1r	.
4G	fra	.	.	.	.
4F	me	.	.	.	.
4E-X	di-	.	.	.	.
2D	-cea,	.	.	2r	.
2d	On-	.	.	2a	On-
=15	=15	=15	=15	=15	=15
4d	-de	2r	.	4a	-de
4d	fra	.	.	4a	fra
4c	me	4r	.	4a	me
4B-y	di-	4d	da	4b-y	di-
2.A	-cea	2.e	me,	2cc	-cea
.	.	.	.	2a	da
4B-y	da	4d	da	.	.
=16	=16	=16	=16	=16	=16
4c	me	4e	me	4g	me
4F	di-	4c	di-	4a	di-
2c	-vi-	2c	-vi-	2g	-vi-
4F	-so:	4c	-so:	4a	-so:
4F	Se	4c	Se	4a	Se
4G	que-	4B-y	que-	4b-y	que-
4A	-st'è il	4c	-st'è il	4a	-st'è il
=17	=17	=17	=17	=17	=17
4B-y	Pa-	4f	Pa-	4d	Pa-
4G	-ra-	4g	-ra-	4b-y	-ra-
2A	-di-	2e	-di-	2a	-di-
2D	-so,	4f	-so,	2a	-so,
.	.	4f	Se	.	.
2r	.	4d	que-	2r	.
.	.	4e	-st'è il	.	.
=18	=18	=18	=18	=18	=18
1r	.	4f	Pa-	1r	.
.	.	4g	-ra-	.	.
.	.	2a	-di-	.	.
4r	.	4d	-so,	4r	.
4G	Se	4d	<Se	4b-y	Se
4F	que-	4f	que-	4a	que-
4D	-st'è il	4F	-st'è il	4a	-st'è il
=19	=19	=19	=19	=19	=19
4E-X	Pa-	4G	Pa-	4g	Pa-
4C	-ra-	4G	-ra-	4g	-ra-
2D	-di-	2d	-di-	2f#X	-di-
2G	-so,	1d	-so,	4g	-so,
.	.	.	.	8fnXiL	.
.	.	.	.	8eJ	.
2G	Più	.	.	2d	.
=20	=20	=20	=20	=20	=20
0A	dol-	0r	.	2r	.
.	.	.	.	2a	Più
.	.	.	.	1a	dol-
=21	=21	=21	=21	=21	=21
2D	-ci	4r	.	1a	-ci
.	.	8d	che	.	.
.	.	8d	fra	.	.
2r	.	4d	l'ac-	.	.
.	.	16A	-que e	.	.
.	.	16A	fra	.	.
.	.	8B-y	l'a-	.	.
2r	.	2c	-re-	4r	.
.	.	.	.	8g	che
.	.	.	.	8g	fra
4r	.	2G	-ne,	4g	l'ac-
8G	che	.	.	16d	-que e
.	.	.	.	16d	fra
8G	fra	.	.	8e	l'a-
=22	=22	=22	=22	=22	=22
4G	l'ac-	2r	.	2f	-re-
16D	-que e	.	.	.	.
16D	fra	.	.	.	.
8E	l'a-	.	.	.	.
2F	-re-	4r	.	4c	-ne,
.	.	8c	che	8cc	<che
.	.	8c	fra	8cc	fra
2C	-ne,	4e	l'ac-	4cc	l'ac-
.	.	16e	-que e	16g	-que e
.	.	16e	fra	16g	fra
.	.	8f	l'a-	8a	l'a-
2r	.	2g	-re-	2b-y	-re-
=23	=23	=23	=23	=23	=23
4r	.	2e	-ne	1g	-ne>
8c	<che	.	.	.	.
8c	fra	.	.	.	.
4c	l'ac-	2g	In	.	.
16G	-que e	.	.	.	.
16G	fra	.	.	.	.
8A	l'a-	.	.	.	.
2B-y	-re-	8dL	ciel,	4r	.
.	.	8e	.	.	.
.	.	8f	.	4f	In
.	.	8gJ	.	.	.
2F	-ne>	2a	.	8fL	ciel
.	.	.	.	8g	.
.	.	.	.	8a	.
.	.	.	.	8b-yJ	.
=24	=24	=24	=24	=24	=24
1r	.	1r	.	4.cc	.
.	.	.	.	8a	son
.	.	.	.	4.b-y	le
.	.	.	.	8g	Si-
4r	.	4r	.	2a	-re-
4F	In	4A	In	.	.
8FL	ciel	8AL	ciel	2a	-ne,
8G	.	8B-y	.	.	.
8A	.	8c	.	.	.
8B-yJ	.	8dJ	.	.	.
=25	=25	=25	=25	=25	=25
4.c	.	4.e	.	1r	.
8A	son	8f	son	.	.
4.B-y	le	4.d	le	.	.
8G	Si-	8d	Si-	.	.
2A	-re-	2c#X	-re-	2r	.
4D	-ne,	4d	-ne,	4r	.
4G	In	4B-y	In	4b-y	In
=26	=26	=26	=26	=26	=26
4.F	ciel	4.cnXi	ciel	4.a	ciel
8D	son	8d	son	8a	son
4.E-X	le	4B-y	le	4.g	le
.	.	2c	Si-	.	.
8C	Si-	.	.	8cc	Si-
1D	-re-	.	.	4a	-re-
.	.	4B-y	-re-	4g	.
.	.	4A	.	2a	.
.	.	4d	.	.	.
=27	=27	=27	=27	=27	=27
0Gl	-ne!	0dl	-ne!	0gl	-ne!
==	==	==	==	==	==
*-	*-	*-	*-	*-	*-
!!!system-decoration: [*]
!!!RDF**kern: i = editorial accidental
!!!RDF**kern: l = terminal long
!!!ENC: Emiliano Ricciardi
!!!END: 2018
!!!EED: Ricciardi, Emiliano
!!!EEV: 2018/09/18
!!!YEC: Copyright 2018 Emiliano Ricciardi, All Rights Reserved
!!!ONB: Translated from MusicXML on 2018/09/18 and edited by Craig Stuart Sapp
!!@@BEGIN:	VERSEDATA
!!@SOLERTI:	1177
!!@CATALOGNUM:	Trm1177
!!@LAST_MODIFIED: 2020/07/12
!!@TITLE:		Che soave rapina
!!@GENRE:		madrigale
!!@MANUSRC:	E<sub>1</sub>, F<sub>2</sub>, V<sub>13/E1</sub>
!!@PRINTSRC:	27, 48, 54, 70, 141, 145, 166, 169
!!@@BEGIN:	VERSES
!!@ABOUTIT:	[A la medesima? (i.e., Livia d'Arco, see Rime 1171-1176)]
!!@ABOUTEN:	[To the same lady? (i.e., Livia d'Arco, see Rime 1171-1176)]
!!@EDITOR:	Solerti, Angelo
!!@EDITION_TITLE: Le Rime di Torquato Tasso
!!@EDITION_LOC:	Bologna
!!@EDITION_PUB:	Romagnoli-Dall’Acqua
!!@EDITION_DATE:  1898-1902
!!@EDITION_VOL:	4
!!@EDITION_PAGE:  213
!!@TRANSLATOR:	Emiliano Ricciardi and Amyrose McCue Gill
!!@VERSE:
!!	Che soave rapina
!!	Fu quella del mio core
!!	A l'armonìa divina,
!!	Mentre sciogliea sì vaghi spirti Amore!
!!	Onde fra me dicea da me diviso:
!!	Se questo è il paradiso,
!!	Più dolci che ne l'acque e fra l'arene
!!	In ciel son le sirene!
!!@TVERSE:
!!	What a pleasing theft
!!	Was that of my heart
!!	To divine harmony,
!!	While Love dissolved such lovely spirits!
!!	Hence I said to myself, from myself parted:
!!	If this is paradise,
!!	Sweeter than in the waters and between the shores
!!	In heaven are the sirens!
!!@@END:		VERSES
!!@OTHER_CRIT_ED:   None
!!@ATTRIBUTION_ABOUT:	Secure
!!	<br>
!!	Among other sources, this sonnet appears in the authoritative manuscript It. 385, Biblioteca Estense Universitaria, Modena, Italy (see Literary Sources).
!!@DATING:	Mid-1580s?
!!@DEDICATEE:	d'Arco, Livia ?
!!@COMMENTARY:
!!@@END:		VERSEDATA
!!@@BEGIN:	SETTING
!!@CATALOGNUM:	Trm1177c
!!@RIMETITLE:	Che soave rapina
!!@SOLERTI:	1177
!!@COMPOSER:	Billi, Lucio
!!@PRINCEPSTITLE:	Il primo libro de madrigali a cinque voci
!!@PRINCEPSLOC:	Venetia
!!@NORMLOC:	Venice
!!@NORMPUB:	Amadino
!!@NORMPUBSHORT:	Amadino
!!@PRINCEPSPUB:	Amadino
!!@PRINCEPSYEAR:	1602
!!@PRINCEPSRISM:	B 2645
!!@REPRINTS:	
!!@OVOICES:	5
!!@EXTANTVOICES:	3
!!@PARTBOOKS:	
!!@EXTPARTBOOKS:	
!!@OCLEFS:	C2,C3,F3
!!@OMENSURATION:	C
!!@OKEYSIG:	b-
!!@FINAL:	G
!!@TIMPEDITOR:	Ricciardi, Emiliano
!!@NOTE:		
!!@@END:		SETTING
